src/img/company.svg

<svg width="20" height="21" viewBox="0 0 20 21" fill="none" xmlns="http://www.w3.org/2000/svg">
<path d="M11.1072 0C6.02956 1.72803 1.74643 5.25083 0 10.5C1.72649 15.6893 5.96941 19.2515 11.1072 21C15.6759 17.4456 18.1672 14.591 20 10.5C17.3693 8.71775 16.2642 7.80021 14.1314 5.04227C11.2738 6.38147 8.78639 7.94215 6.58296 10.443C7.37367 11.5796 8.68652 12.6405 9.74796 13.5121C11.2949 12.365 12.4746 11.2473 13.2387 10.2883C13.7179 10.8791 14.2581 11.2722 14.7727 11.6008C13.4435 13.8825 11.9519 15.1353 10.1099 16.3319C7.34317 14.8539 5.11921 12.2957 4.03831 10.1325C6.06428 6.76193 9.24194 4.48607 12.8526 3.21774C12.2677 2.1839 11.5009 1.22111 11.1072 0Z" fill="#FFD001"/>
</svg>

<svg width="20" height="21" fill="none" xmlns="http://www.w3.org/2000/svg"><path d="M11.107 0C6.03 1.728 1.747 5.25 0 10.5c1.726 5.19 5.97 8.752 11.107 10.5 4.569-3.554 7.06-6.409 8.893-10.5-2.63-1.782-3.736-2.7-5.869-5.458-2.857 1.34-5.345 2.9-7.548 5.401.79 1.137 2.104 2.197 3.165 3.07 1.547-1.148 2.727-2.266 3.49-3.225.48.591 1.02.984 1.535 1.313-1.33 2.281-2.821 3.534-4.663 4.73-2.767-1.477-4.99-4.035-6.072-6.198 2.026-3.371 5.204-5.647 8.815-6.915C12.268 2.184 11.5 1.22 11.107 0z" fill="#FFD001"/></svg>
